assets/img/braze_icons/plane.svg

<svg fill="none" height="24" viewBox="0 0 24 24" width="24" xmlns="http://www.w3.org/2000/svg"><path clip-rule="evenodd" d="m17.0263 2.1174c1.3533-1.39781 3.5894-1.415892 4.9651-.04015 1.3381 1.33805 1.363 3.49965.0561 4.86818l-2.9975 3.14507 1.8115 7.8678c.057.2431.1287.5489.1046.8611-.0208.27-.0962.533-.2217.773-.368.704-1.1559 1.3475-1.7521 1.8438-.2327.1937-.55.4181-.9643.4914-.5417.0958-1.099-.0357-1.5407-.3637-.3378-.2508-.5212-.5935-.6427-.8708-.118-.2692-.232-.6115-.3563-.9844l-1.5111-4.5333-2.2012 2.2012c-.1068.1068-.1604.1608-.1975.2019l-.0029.0032c.0055.0954.0178.1905.0283.2854.0634.5707.1252 1.1416.1904 1.7121.0248.2172.056.4906.0125.7637-.0378.2366-.1177.4645-.2361.6729-.1366.2405-.3317.4344-.4868.5885-.3037.3019-.6074.6196-.8687.8389-.1991.1671-.45836.3505-.79805.439-.46109.1202-.94993.0718-1.37851-.1365-.31573-.1534-.53402-.3841-.69646-.587-.7924-.9896-1.40629-2.1268-2.13483-3.1633-1.03633-.7287-2.17365-1.3424-3.16327-2.1348-.20287-.1624-.43359-.3807-.58701-.6964-.20826-.4286-.25667-.9175-.1365-1.3785.08852-.3397.27196-.599.43902-.7981.21927-.2613.53702-.565.83885-.8687.15411-.155.3481-.3502.5886-.4868.20832-.1184.43621-.1983.67282-.236.27313-.0436.54653-.0124.76373.0124.57051.0652 1.14142.127 1.71213.1904.15017.0167.22583.0248.28102.028l.00435.0003c.07108-.0638.13764-.1329.20515-.2004l2.2012-2.2012-4.53333-1.5111c-.37296-.12428-.7152-.23833-.98445-.35632-.2773-.12153-.61993-.3049-.87077-.6427-.32796-.44168-.45952-.99895-.3637-1.54067.07328-.41431.29773-.73156.49141-.96426.49463-.59429 1.14294-1.38576 1.84377-1.75217.24002-.12549.50303-.20092.77307-.22171.31215-.02404.61797.04765.86108.10464l7.83748 1.8048z" fill="#801ed7" fill-rule="evenodd"/></svg>

<svg width="24" height="24" viewBox="0 0 24 24" fill="none" xmlns="http://www.w3.org/2000/svg">
<path fill-rule="evenodd" clip-rule="evenodd" d="M17.0263 2.1174C18.3796 0.71959 20.6157 0.701508 21.9914 2.07725C23.3295 3.4153 23.3544 5.5769 22.0475 6.94543L19.05 10.0905L20.8615 17.9583C20.9185 18.2014 20.9902 18.5072 20.9661 18.8194C20.9453 19.0894 20.8699 19.3524 20.7444 19.5924C20.3764 20.2964 19.5885 20.9399 18.9923 21.4362C18.7596 21.6299 18.4423 21.8543 18.028 21.9276C17.4863 22.0234 16.929 21.8919 16.4873 21.5639C16.1495 21.3131 15.9661 20.9704 15.8446 20.6931C15.7266 20.4239 15.6126 20.0816 15.4883 19.7087L13.9772 15.1754L11.776 17.3766C11.6692 17.4834 11.6156 17.5374 11.5785 17.5785L11.5756 17.5817C11.5811 17.6771 11.5934 17.7722 11.6039 17.8671C11.6673 18.4378 11.7291 19.0087 11.7943 19.5792C11.8191 19.7964 11.8503 20.0698 11.8068 20.3429C11.769 20.5795 11.6891 20.8074 11.5707 21.0158C11.4341 21.2563 11.239 21.4502 11.0839 21.6043C10.7802 21.9062 10.4765 22.2239 10.2152 22.4432C10.0161 22.6103 9.75684 22.7937 9.41715 22.8822C8.95606 23.0024 8.46722 22.954 8.03864 22.7457C7.72291 22.5923 7.50462 22.3616 7.34218 22.1587C6.54978 21.1691 5.93589 20.0319 5.20735 18.9954C4.17102 18.2667 3.0337 17.653 2.04408 16.8606C1.84121 16.6982 1.61049 16.4799 1.45707 16.1642C1.24881 15.7356 1.2004 15.2467 1.32057 14.7857C1.40909 14.446 1.59253 14.1867 1.75959 13.9876C1.97886 13.7263 2.29661 13.4226 2.59844 13.1189C2.75255 12.9639 2.94654 12.7687 3.18704 12.6321C3.39536 12.5137 3.62325 12.4338 3.85986 12.3961C4.13299 12.3525 4.40639 12.3837 4.62359 12.4085C5.1941 12.4737 5.76501 12.5355 6.33572 12.5989C6.48589 12.6156 6.56155 12.6237 6.61674 12.6269L6.62109 12.6272C6.69217 12.5634 6.75873 12.4943 6.82624 12.4268L9.02744 10.2256L4.49411 8.7145C4.12115 8.59022 3.77891 8.47617 3.50966 8.35818C3.23236 8.23665 2.88973 8.05328 2.63889 7.71548C2.31093 7.2738 2.17937 6.71653 2.27519 6.17481C2.34847 5.7605 2.57292 5.44325 2.7666 5.21055C3.26123 4.61626 3.90954 3.82479 4.61037 3.45838C4.85039 3.33289 5.1134 3.25746 5.38344 3.23667C5.69559 3.21263 6.00141 3.28432 6.24452 3.34131L14.082 5.14611L17.0263 2.1174Z" fill="#801ED7"/>
</svg>
